public/eye.svg

<svg width="24" height="24" viewBox="0 0 24 24" fill="none" xmlns="http://www.w3.org/2000/svg">
<path opacity="0.4" d="M23.855 11.3917C21.5954 6.98292 17.1221 4 12 4C6.87789 4 2.40331 6.985 0.144977 11.3921C0.0496613 11.5806 0 11.7889 0 12.0002C0 12.2115 0.0496613 12.4198 0.144977 12.6083C2.40456 17.0171 6.87789 20 12 20C17.1221 20 21.5966 17.015 23.855 12.6079C23.9503 12.4194 24 12.2111 24 11.9998C24 11.7885 23.9503 11.5802 23.855 11.3917ZM12.0058 18H12C10.4097 17.9992 8.88485 17.3669 7.76077 16.2419C6.63669 15.117 6.00542 13.5917 6.00581 12.0015C6.0062 10.4112 6.6382 8.88618 7.76283 7.76182C8.88746 6.63747 10.4126 6.00583 12.0029 6.00583C13.5932 6.00583 15.1183 6.63747 16.243 7.76182C17.3676 8.88618 17.9996 10.4112 18 12.0015C18.0004 13.5917 17.3691 15.117 16.245 16.2419C15.1209 17.3669 13.5961 17.9992 12.0058 18Z" fill="#3366FF"/>
<path d="M15.8608 13.0363C15.7247 13.5433 15.4899 14.0186 15.1698 14.4347C14.8497 14.8509 14.4506 15.1998 13.9955 15.4614C13.5403 15.7231 13.038 15.8924 12.5173 15.9596C11.9966 16.0268 11.4677 15.9906 10.961 15.853C10.4544 15.7155 9.97979 15.4794 9.56452 15.1581C9.14926 14.8368 8.80147 14.4368 8.54107 13.9809C8.28068 13.525 8.11279 13.0222 8.04704 12.5013C7.98129 11.9805 8.01897 11.4517 8.15791 10.9454C8.54194 11.228 9.01453 11.3636 9.48997 11.3277C9.96541 11.2917 10.4122 11.0865 10.7494 10.7494C11.0865 10.4122 11.2917 9.96542 11.3276 9.48998C11.3636 9.01454 11.228 8.54195 10.9454 8.15792C11.6237 7.96431 12.3412 7.95486 13.0243 8.13054C13.7075 8.30621 14.3314 8.66067 14.8321 9.15747C15.3328 9.65426 15.6922 10.2755 15.8732 10.9572C16.0542 11.6389 16.0504 12.3565 15.8621 13.0363H15.8608Z" fill="#3366FF"/>
</svg>

<svg xmlns="http://www.w3.org/2000/svg" width="24" height="24" fill="#36f" xmlns:v="https://vecta.io/nano"><path opacity=".4" d="M23.855 11.392C21.595 6.983 17.122 4 12 4S2.403 6.985.145 11.392A1.35 1.35 0 0 0 0 12a1.35 1.35 0 0 0 .145.608C2.405 17.017 6.878 20 12 20s9.597-2.985 11.855-7.392a1.35 1.35 0 0 0 0-1.216zM12.006 18H12c-1.59-.001-3.115-.633-4.239-1.758s-1.755-2.65-1.755-4.24.632-3.115 1.757-4.24 2.65-1.756 4.24-1.756 3.115.632 4.24 1.756S18 10.411 18 12.002s-.631 3.116-1.755 4.24-2.649 1.757-4.239 1.758z"/><path d="M15.861 13.036a3.99 3.99 0 0 1-1.865 2.425 3.99 3.99 0 0 1-3.034.392 3.99 3.99 0 0 1-2.42-1.872 3.99 3.99 0 0 1-.383-3.036c.384.283.857.418 1.332.382s.922-.241 1.259-.578.542-.784.578-1.259-.1-.948-.382-1.332a3.97 3.97 0 0 1 3.887 1 3.97 3.97 0 0 1 1.03 3.879h-.001z"/></svg>
